!!!!SEGMENT: pl-wtm--r-1463_stefani-jozef--slowiku-co-pelen-milosci-zawodzisz-spiew.krn
!!!cenid: 18xx:2177
!!!COM: Stefani, Józef
!!!COM-rismID: pe30024097
!!!CDT: 1800/04/16-1876/03/19
!!!CNT: Polish
!!!OTL: Słowiku, co pełen miłości zawodzisz śpiew
!!!PDT:
!!!AGN:
!!!SMS-siglum: PL-Wtm
!!!SMS-shelfmark: R 1463
!!!SMS-shelfwork: W
!!!SMS-variant:
!!!SMS-altvar:
!!!NIFC-rismSourceID: 1001120713
!!!NIFC-islandoraID: pl-wtm:25918
!!!URL-pdf-islandora: https://repozytorium.nifc.pl/islandora/object/pl-wtm%3A25918/datastream/PDF/view
!!!URL-scan: https://polish.musicsources.pl/pl/lokalizacje/galeria/rekopisy/6278 @EN{Scan on Polish Music Sources Website} @PL{Skany w portalu Dziedzictwo Muzyki Polskiej w otwartym dostępie}
!!!ONB-nifc:
!!!OMD: Allegretto.
!!!AIN: 2 empty
!!!key:
**kern	**kern	**dynam	**kern	**text
*part2	*part2	*part2	*part1	*part1
*staff3	*staff2	*	*staff1	*staff1
*Iempty	*Iforte	*	*Iempty	*
*	*I"Fortepian	*	*I"Śpiew	*
*clefF4	*clefG2	*	*clefG2	*
*k[f#c#]	*k[f#c#]	*	*k[f#c#]	*
*D:	*D:	*	*D:	*
*M6/8	*M6/8	*	*M6/8	*
*all\right	*all\right	*	*all\right	*
8r	8aa\	.	8r	.
=1	=1	=1	=1	=1
.	(8qgg#X/	.	.	.
!LO:TX:t=P:problem=mixed beam	!	!	!	!
8AA/L	4aaT\)	.	2.r	.
8c# 8A 8G\	.	.	.	.
8c#J 8A 8G\	(16gg#\LL	.	.	.
.	16aa\JJ)	.	.	.
!LO:TX:t=P:problem=mixed beam	!	!	!	!
8AA/L	(16aa#X\LL	.	.	.
.	16bb\	.	.	.
8c# 8A 8G\	16ccc#\	.	.	.
.	16ddd\J	.	.	.
8c#J 8A 8G\	8eee\J)	.	.	.
=2	=2	=2	=2	=2
*^	*	*	*	*
4.D/	8D\L	(8.fff#\L	.	2.r	.
.	8d 8A 8F#\	.	.	.	.
.	.	16ccc#\L	.	.	.
.	8dJ 8A 8F#\	16ddd\	.	.	.
.	.	16bb\JJ	.	.	.
*rep	*rep	*	*	*	*
4.D/	8D\L	4aa\)	.	.	.
.	8d 8A 8F#\	.	.	.	.
.	8dJ 8A 8F#\	8ddd\	.	.	.
*Xrep	*Xrep	*	*	*	*
=3	=3	=3	=3	=3	=3
4.BB/	8BB\L	(4dddT\	.	2.r	.
.	8B 8F# 8D\	.	.	.	.
.	8BJ 8F# 8D\	16ccc#\LL	.	.	.
.	.	16bb\JJ)	.	.	.
!LO:TX:t=P:problem=mixed beam	!	!	!	!	!
8EE/L	4ryy	8.fff#\L	.	.	.
8c# 8A 8E\	.	.	.	.	.
.	.	(16eee\L	.	.	.
8c#J 8A 8E\	8ryy	16ccc#\	.	.	.
.	.	16aa\JJ)	.	.	.
!!LO:LB:g=original
=4	=4	=4	=4	=4	=4
4.E/	8E\L	(16ff#\LL	.	4r	.
.	.	16ee\	.	.	.
!	!LO:SIC:v:n=2:s=8G#\	!	!	!	!
.	8d 8G\	16dd#X\	.	.	.
.	.	16ee\	.	.	.
!	!LO:SIC:v:n=2:s=8G#\	!	!	!	!
.	8dJ 8G\	16.ccc#\)	.	8r	.
.	.	32bb\JJk	.	.	.
8c# 8A\	4ryy	8aa\	.	8r	.
8r	.	8r	.	8r	.
8r	8ryy	8r	.	8a/	Sło-
*v	*v	*	*	*	*
=5	=5	=5	=5	=5
!	!	!LO:DY:rj	!	!
4D 4DD/	8r	p	8dd\	-wi-
.	8f#L 8d 8A/	.	8f#/	-ku
8r	8f#J 8d 8A/	.	8f#/	co
4D 4DD/	8r	.	8.g/	pe-
.	8gL 8d 8B/	.	.	.
.	.	.	16a/	-łen
8r	8gJ 8d 8B/	.	8b/	mi-
=6	=6	=6	=6	=6
4D 4DD/	8r	.	4.a/	-ło-
.	8f#L 8d 8A/	.	.	.
8r	8f#J 8d 8A/	.	.	.
4D 4DD/	8r	.	4f#/	-ści
.	8f#L 8d 8A/	.	.	.
8r	8f#J 8d 8A/	.	8dd\	Za-
=7	=7	=7	=7	=7
4E 4EE/	8r	.	8.cc#\L	-wo-
.	8eL 8c# 8A/	.	.	.
.	.	.	16b\Jk	.
8r	8eJ 8c# 8A/	.	8a/	-dzisz
.	.	.	(32qqff#/LLL	.
.	.	.	32qqee/	.
.	.	.	32qqdd#X/JJJ)	.
!	!	!LO:DY:rj	!	!
4E 4EE/	4g#X 4e 4B/	f	4.ee\	śpiew
8r	8r	.	.	.
!!LO:LB:g=original
=8	=8	=8	=8	=8
!	!	!LO:DY:rj	!	!
8EL 8EE/	8g#XL 8B/	p	8g#X/	Za-
8E 8EE/	8a 8c#/	.	8a/	-wo-
8EJ 8EE/	8bJ 8d/	.	8b/	-dzisz
4A 4AA\	4a 4c#/	.	4a/	śpiew
8r	8r	.	8a/	Za-
=9	=9	=9	=9	=9
4G 4GG/	8r	.	8.b-X\	-zdro-
.	8b-XL 8g 8d/	.	.	.
.	.	.	16b-\	-ścią
8r	8b-J 8g 8d/	.	8b-\	prze-
4G 4GG/	8r	.	(8.dd\L	-ni-
.	8b-L 8g 8d/	.	.	.
.	.	.	16ccn\Jk)	.
8r	8b-J 8g 8d/	.	8b-\	-każ
=10	=10	=10	=10	=10
8A 8AA\	8a 8e 8c#/	.	8a/	mnie.
8r	8r	.	8r	.
8B 8G#X 8E\	(32ee\LLL	.	8ee\	O
.	32dd\	.	.	.
.	32cc#\	.	.	.
.	32b\JJJ	.	.	.
4c# 4A\	4a/)	.	4a/	nie!
8r	8r	.	8a/	Bo
!!LO:LB:g=original
=11	=11	=11	=11	=11
4C# 4CC#/	8r	.	4gn/	ju-
.	8gL 8e 8A/	.	.	.
8r	8gJ 8e 8A/	.	8ee\	-tro
4C# 4CC#/	8r	.	8.ee\	śpiew
.	8gL 8e 8A/	.	.	.
.	.	.	16ff#\	twój
8r	8gJ 8e 8A/	.	8ee\	mi-
=12	=12	=12	=12	=12
4D 4DD/	8r	.	4.dd\	-ło-
.	8f#L 8d 8A/	.	.	.
8r	8f#J 8d 8A/	.	.	.
4D 4DD/	8r	.	4a/	-sny
.	8f#L 8d 8A/	.	.	.
8r	8f#J 8d 8A/	.	8a/	Wśród
=13	=13	=13	=13	=13
!	!	!	!LO:TX:a:t=X	!
4Fn\	4fn/	.	4fn/	skar-
8F\	8f/	.	8f/	-gi
(16F\LL	(16f/LL	.	(16f/LL	ci-
32G\L	32g/L	.	32g/L	.
32F\JJJ	32f/JJJ	.	32f/JJJ)	.
8E\L)	8e/L)	.	8e/	-chej
8D'\J	8d'/J	.	8d/	ża-
=14	=14	=14	=14	=14
4A\	4a/	.	4a/	-ło-
.	(8qccn/	.	(8qccn/	.
8G\	8b-X/)	.	8b-X/)	.
4A\	4a/	.	4a/	-snéj
8r	8r	.	8r	.
!!LO:PB:g=original
=15	=15	=15	=15	=15
*	*^	*	*	*
4B-X 4BB-X\	4g#X 4e 4d/	4ryy	.	8dd\	W_ża-
.	.	.	.	8g#X/	-lu
8r	8r	8ryy	.	16r	.
.	.	.	.	16g#/	roz-
4.B- 4.BB-\	4.g#/	8.fn\L	.	8.ffn\	-pły-
.	.	16e\K	.	16ee\	-nie
.	.	8d\J	.	8dd\	się
*	*v	*v	*	*	*
=16	=16	=16	=16	=16
8A 8AA\	8a 8c#/	.	8cc#\	w_łzach
8r	8r	.	8r	.
!	!	!LO:DY:rj	!	!
8A\	8ee 8cc# 8a\	f	8ee\	Ah!
4AA/	4ggn 4cc# 4a\	.	4ggn\	nie,
8r	8r	.	8r	.
=17	=17	=17	=17	=17
8A 8AA\	8g 8e 8c#/	.	8gn/	nie,
8r	8r	.	8r	.
!	!	!LO:DY:rj	!	!
8r	8b 8g/	p	8r	.
4r	(4a 4f#/	.	(4a/	Bo
8r	8g 8e/)	.	8g/)	.
!!LO:LB:g=original
=18	=18	=18	=18	=18
4D 4DD/	8r	.	4f#/	ju-
.	8f#L 8d 8A/	.	.	.
8r	8f#J 8d 8A/	.	8a/	-tro
4D 4DD/	8r	.	8.b\	śpiew
.	8gL 8d 8B/	.	.	.
.	.	.	16cc#\	do
8r	8gJ 8d 8B/	.	8dd\	ie-
=19	=19	=19	=19	=19
4D 4DD/	8r	.	4.a/	-dy-
.	8f#L 8d 8A/	.	.	.
8r	8f#J 8d 8A/	.	.	.
4D 4DD/	8r	.	4f#/	-néj
.	8f#L 8d 8A/	.	.	.
8r	8f#J 8d 8A/	.	8a/	Już
=20	=20	=20	=20	=20
*	*^	*	*	*
4G 4GG\	8r	4ryy	.	4b\	zcich-
.	8bL 8g 8d/	.	.	.	.
8r	8bJ 8g 8d/	8ryy	.	8b\	-nie
8AL 8AA\	16dd/LL	8gL 8e\	.	(16dd\LL	w_cie-
.	16cc#/J	.	.	16cc#\JJ)	.
8A 8AA\	8b/	8g 8e\	.	8b\	-nu
8AJ 8AA\	8cc#/J	8gJ 8e\	.	8cc#\	Ol-
*	*v	*v	*	*	*
=21	=21	=21	=21	=21
4.B 4.BB\	8r	.	(4ee\	-szy-
.	8eeL [8f#/	.	.	.
.	8ddJ 8f#/]	.	8dd\)	.
8BB\L	8r	<	4dd\	-ny
(8B\	8ddL 8b 8f#/	.	.	.
8A\J	8dd#XJ 8b 8f#/	[[	8dd#X\	I
!!LO:LB:g=original
=22	=22	=22	=22	=22
!LO:TX:a:t=P:problem=brak zakończenia łuku	!	!	!	!
4G\)	8r	.	4ee\	zni-
!	!	!LO:DY:rj	!	!
.	8eeL 8b 8g\	f	.	.
8E\	8ggJ 8b 8g\	.	8gg\	-kną
!	!LO:TX:a:i:t=rall&colon;	!LO:DY:rj	!LO:TX:a:i:t=rall&colon;	!
8A\	8a 8f#/	p	(32b/LLL	wio-
.	.	.	32a/	.
.	.	.	32g#X/	.
.	.	.	32a/JJJ)	.
8r	8r	.	8.ff#\	-sen-
!	!	!LO:DY:rj	!	!
8A 8AA\	8cc# 8a 8g 8e/	f	.	.
.	.	.	16ee\	-ne
=23	=23	=23	=23	=23
!	!LO:N:vis=8	!	!	!
4d 4D\	4dd 4a 4f#/	.	8dd\	sny.
!	!LO:TX:a:i:t=a tempo	!	!	!
.	.	.	8r	.
8r	8r	.	8r	.
*clefG2	*	*	*	*
.	(8qff#/	.	.	.
8gL 8c# 8A/	16.ee\LL)	.	4r	.
.	32dd#X|\JJk	.	.	.
8g 8c# 8A/	8ee|\L	.	.	.
8gJ 8c# 8A/	8a|\J	.	8r	.
=24	=24	=24	=24	=24
8f#L 8d/	(32aa\LLL	.	2.r	.
.	32gg\	.	.	.
.	32ff#\	.	.	.
.	32ee\JJ	.	.	.
8f#J 8d/	8dd\J)	.	.	.
8r	8r	p	.	.
8eL 8c# 8A/	(32aa\LLL	.	.	.
.	32bb\	.	.	.
.	32ccc#\	.	.	.
.	32ddd\JJ	.	.	.
8eJ 8c# 8A/	8eee\J)	.	.	.
8r	8r	.	.	.
!!LO:LB:g=original
=25	=25	=25	=25	=25
8f#L 8d/	(32ddd\LLL	.	2.r	.
.	32eee\	.	.	.
.	32fff#\	.	.	.
.	32ggg\JJ	.	.	.
8f#J 8d/	8aaa\J)	.	.	.
8r	8r	.	.	.
.	(8qff#/	.	.	.
*tremolo	*	*	*	*
!	!	!LO:DY:rj	!	!
8gL 8c# 8A/	16.ee\LL)	f	.	.
.	32dd#X\JJk	.	.	.
8g 8c# 8A/	8ee\L	.	.	.
8gJ 8c# 8A/	8a\J	.	.	.
*Xtremolo	*	*	*	*
=26	=26	=26	=26	=26
8fnL 8d/	(32aa\LLL	.	2.r	.
.	32gg\	.	.	.
.	32ffn\	.	.	.
.	32ee\JJ	.	.	.
8fJ 8d/	8dd\J)	.	.	.
!	!	!LO:DY:rj	!	!
8r	(16cc#\LL	p	.	.
.	16dd\JJ	<	.	.
*tremolo	*	*	*	*
8gL 8e 8A/	16ee\LL	.	.	.
.	16ff#X\	.	.	.
8g 8e 8A/	16gg\	.	.	.
.	16aa\	.	.	.
8gJ 8e 8A/	16bb\	.	.	.
.	16ccc#\JJ	[[	.	.
*Xtremolo	*	*	*	*
=27	=27	=27	=27	=27
!	!	!LO:DY:rj	!	!
8f# 8d/	8ddd\)	f	2.r	.
8r	8r	.	.	.
*clefF4	*	*	*	*
!	!	!LO:DY:rj	!	!
(16B-X\LL	(16b-X/LL	p	.	.
16A\J)	16a/J)	.	.	.
8D'\J	8d'/J	.	.	.
8r	8r	.	.	.
8r	8r	.	.	.
==	==	==	==	==
*-	*-	*-	*-	*-
!!!system-decoration: <s1>{(s2,s3)}
!!!RDF**kern: | = vertical stroke
!!!ENC: Andrzej Kubiczek
!!!END: 2021-06-05
!!!ENC: Marcin Jachim
!!!END: 2021-05-19
!!!YEC: Copyright 2022 Narodowy Instytut Fryderyka Chopina (https://polishscores.org)
!!!YEM: Licence CC BY 4.0 (https://creativecommons.org/licenses/by/4.0)
